!!!COM: Music21
!!!OTL: Muiñeira de Parteme
!!!OMV: pezas_muineiras_muineira-de-parteme_muineira-de-parteme-partitura.musicxml
**kern
*I"Gaita
*I'Bag
*clefG^2
*k[b-e-a-d-]
*M6/8
=1
!LO:TX:a:B:t=Presto
*MM180
!LO:TX:a:t=[quarter]=180
4.r
8ccL
8dd-
8ccJ
=||
4ff
8gg
8aa-L
8gg
8ffJ
=
4ccc
8ccc
8ddd-L
8ccc
8bbnJ
=
8bb-L
8aan
8aa-XJ
8ggL
8aa-
8ggJ
=
8cccL
8aa-
8ffJ
8ccL
8dd-
8ccJ
=
4ff
8gg
8aa-L
8gg
8ffJ
!!linebreak:original
=
4ccc
8ccc
8ddd-L
8ccc
8bbnJ
!!linebreak:original
=
8bb-L
8aan
8aa-XJ
8ggL
8ccc
8aa-J
=
4.ff
8ccL
8dd-
8ccJ
=||
4ff
8gg
8aa-L
8gg
8ffJ
=
4ccc
8ccc
8ddd-L
8ccc
8bbnJ
=
8bb-L
8aan
8aa-XJ
8ggL
8aa-
8ggJ
=
8cccL
8aa-
8ffJ
8ccL
8dd-
8ccJ
!!linebreak:original
=
4ff
8gg
8aa-L
8gg
8ffJ
=
4ccc
8ccc
8ddd-L
8ccc
8bbnJ
!!linebreak:original
=
8bb-L
8aan
8aa-XJ
8ggL
8ccc
8aa-J
=
4.ff
8cccL
8aa-
8ffJ
=||
4ccc
8aa-
8cccL
8aa-
8cccJ
=
4.bb-
8bb-L
8gg
8eenJ
=
4bb-
8gg
8bb-L
8gg
8bb-J
=
4.aa-
8cccL
8aa-
8ffJ
=
4ccc
8aa-
8cccL
8aa-
8cccJ
!!linebreak:original
=
4.bb-
8bb-L
8gg
8eenJ
=
4bb-
8gg
8bb-L
8een
8ggJ
=
4.ff
8cccL
8aa-
8ffJ
=||
4ccc
8aa-
8cccL
8aa-
8cccJ
=
4.bb-
8bb-L
8gg
8eenJ
=
4bb-
8gg
8bb-L
8gg
8bb-J
=
4.aa-
8cccL
8aa-
8ffJ
!!linebreak:original
=
4ccc
8aa-
8cccL
8aa-
8cccJ
!!linebreak:original
=
4.bb-
8bb-L
8gg
8eenJ
=
4bb-
8gg
8bb-L
8een
8ggJ
=||
4.ff
8ccL
8dd-
8ccJ
=||
8ff
8r
2r
==
*-
